X:1
T:6 Lieder, Op.13
T:Sie liebten sich beide
T:Clara Schumann
T:6 Lieder, Op.13
T:Heinrich Heine
T:2. Sie liebten sich beide
T:OpenScore (CC0)
T:OpenScore (CC0)
T:OpenScore (CC0)
C:Clara Schumann
Z:Heinrich Heine
Z:OpenScore (CC0)
%%score 1 { ( 2 3 7 ) | ( 4 5 6 ) }
L:1/8
Q:1/4=68
M:6/8
K:Gmin
V:1 treble nm="Voice"
V:2 treble nm="Piano"
V:3 treble 
V:7 treble 
V:4 bass 
V:5 bass 
V:6 bass 
V:1
"^Nicht schnell" z6 | z6 | z6 | z2 z z2 D | G G B B2 A | z2 e e2 d | z2 z!p!!>(! e d c!>)! | %7
w: |||Sie|lieb- ten sich Bei- de,|doch  kei- ner|wollt' es dem|
!>(! B A G!>)! d3- | d6- | d2 z z2!mf! D | E3/2 E/ E E2 E | D3 D2 G |!p! (G2!<(! e) d2!<)!!>(! c | %13
w: An- dern  ge- stehn|_|* Sie|sa- hen  sich an so|feind- lich, und|woll- * ten vor|
 d3-!>)! d A B | G3 z3 | z6 | z6 | z3 z2 D | G3/2!<(! G/ B!<)!!>(! B2 A!>)! | %19
w: Lie- * be ver-|gehn.|||Sie|tren- nten  sich  end- lich|
[Q:1/4=72]"^stringendo" z2[Q:1/4=76] e[Q:1/4=79] e2[Q:1/4=82] d | z3 e[Q:1/4=78]"^rit." d c | %21
w: und  sah'n  sich|nur  noch  zu|
[Q:1/4=76] B A[Q:1/4=72] G d3-[Q:1/4=68] | d6- | d2 z z2 D |!mf! E2 E E2 E | D3 D2 G | %26
w: wei- len im Traum;|_|* Sie|wa- ren längst ge-|stor- ben und|
!p! (G2 e) d2 c | d3- dc B | G6- | G2 z z3 | z6 | z6 | z6 | z6 |] %34
w: wuss- * ten es|sel- * * ber|kaum.|_|||||
V:2
"^ben legato"!p! z ([B,D]B B2 A) | z ([C^F][Fe] [Fe]2 [Gd]) | z ([F_Ad][=Bd_a] agf | %3
 [Ge]dc _B2 =A) |!p! z!<(! ([B,D]B!<)!!>(! B2 A)!>)! | z!<(! ([C^F][Fe]!<)!!>(! [Fe]2 [Gd])!>)! | %6
 z!<(! ([F_Ad][=Bd_a]!<)! g"_dim."fe | [Dd][Ec][=E_B] [^F=A]2) [A,DF] | [B,DG]>[A,D=F][G,D_E] D3- | %9
 D2 z z3 |!mf! [B,DE]3 [A,CE]2 [G,CE] | ([A,D-]3 [B,D]2) z | z2 ([CG] [DG]2 [CG] | %13
 ([A,-D-G]3 [A,D^F]3)) | z ([B,D]B B2 A) | z ([C^F][Fe] [Fe]2 [Gd]) | z ([F_Ad][=Bd_a] agf | %17
 edc B2 A) | z!<(! [B,D]B!<)!!>(! B2 A!>)! |"^stringendo" z [C^F][Fe] e2 d | z [F_Ad][=Bd_a] gfe | %21
 [Dd][Ec][=EB] [^FA]2 [A,DF] | [B,DG]>[A,D=F][G,D_E] D3- | D2 z z3 |!mf! [B,DE]3 [A,CE]2 [CE] | %25
 D3- [B,D]2 z |!p! z2 ([CG] [DG]2 [CG] | G3 ^F3) |!pp! z ([DG][E_A]!<(! [Gc]2 [F=B])!<)! | %29
!pp! z [_A=B][Ac]!<(! A3!<)! |!pp! z"_dim." ([_A=Bf][Bd_a] [Bd]3 | G2 E [C^F]3 | %32
 [B,G]3) [G,B,D]3- | !fermata![G,B,D]3 z3 |] %34
V:3
 x3 ^F3 | x6 | x3 [=Bd]3 | x2 [EG] [C^F]3 | x3 ^F3 | x6 | x3 G3 | x6 | x6 | x6 | x6 | x6 | x6 | %13
 x6 | x3 ^F3 | x6 | x3 [=Bd]3 | G2 [EG] [C^F]3 | x3 ^F3 | x3 ^F2 G | x3 G3 | x6 | x6 | x6 | x6 | %25
 x6 | x6 | x6 | x6 | x6 | x6 | x6 | x6 | x6 |] %34
V:4
 (G,,D,D [CD]3) | (G,,A,C [A,C]2 [B,D]) | (G,, =B,F FED | C,2 A,, D,3) | G,,D,D [CD]3 | %5
 G,,A,C [A,C]2 [B,D] | G,, =B,F EDC | B,C^C D2 x | [D,,D,]6- | [D,,D,]2 z z3 | [C,,C,]6 | %11
 (^F,3 G,3) | ((A,,3 B,,2) E, | D,6) | G,,D,D [CD]3 | (G,,A,C [A,C]2 [B,D]) | G,, (=B,F) (FED) | %17
 C,2 A,, D,3 | G,,D,D [CE]3 |"^string." G,,A,C [A,C]2 [B,D] | G,, =B,F E"^rit."DC | B,C^C D2 x | %22
 [D,,D,]6- | [D,,D,]2 z z3 | [C,,C,]6 | [D,-^F,A,]3 [D,G,]2 z | [A,,G,]3 [B,,G,]2 [E,G,] | D,6 | %28
 ([G,,,G,,] =B,C E2 D) | (G,, [DF][CF] C2 =B,) | (G,, DF FED | C,3 D,3 | [G,,D,]3) (D,,3 | %33
 !fermata!G,,,3) z3 |] %34
V:5
 G,,6 | G,,6 | x6 | CD x4 | G,,6 | G,,6 | x3 C,3 | D,3- D,3- | x3 ^F,3- | ^F,2 x4 | x6 | %11
 (([C,,C,]3 [B,,,B,,]2)) z | x6 | x6 | G,,6 | G,,6 | x6 | CD x4 | G,,6 | G,,6 | x2 x C,3 | %21
 D,3- D,3- | x3 ^F,3- | F,2 x x3 | x3 x2 G, | (([C,,D,,-C,]3 [B,,,D,,B,,]2)) x | x6 | x6 | x6 | %29
 x6 | x6 | x6 | x6 | x6 |] %34
V:6
 x6 | x6 | x6 | x6 | x6 | x6 | x6 | x6 | x6 | x6 | x6 | x6 | G,3- G,2 G, | x6 | x6 | x6 | x6 | x6 | %18
 x6 | x6 | x6 | x6 | x6 | x6 | x6 | x6 | x6 | x6 | x6 | x3 F3 | x6 | CD x4 | x6 | x6 |] %34
V:7
 x6 | x6 | x6 | x6 | x6 | x6 | x6 | x6 | x6 | x6 | x6 | x6 | x6 | x6 | x6 | x6 | x6 | x6 | x6 | %19
 x6 | x6 | x6 | x6 | x6 | x6 | x6 | x6 | [A,D]6 | x6 | x3 e2 d | x3 _agf | ed[Gc] _B2 =A | x6 | %33
 x6 |] %34

